X:102
T: Der geraechte Bruder
N: Q0028
O: Mitteleuropa, Deutschland (BRD) , Niederrhein, Grevenbroich, Wickrath
N: Kleinere Melodievarianten aus anderen Quellen abgedruckt.
R: Ballade, Mord, Vergeltung
M: 6/8
L: 1/16
K: G
D2 | G4G2B2G2B2 | d4c2B4
d2 | e2g2e2d2B2GB | d4c2B4z2 |
d3BdBA4GB | d3BdBA4
GB | d3eddG2B2d2 | d2c2A2G4

